X: 1
T: Wing Commander Donald Mackenzie's  (G)
C: Phil Cunningham
M: 4/4
L: 1/8
Z: 2009 John Chambers <jc:trillian.mit.edu>
S: Several other online transcriptions, merged
R: reel
K: G
  GA \
| "G"BD~D2 "(D7/f#)"BDAD | "Em"GEED EGDG | "C"E2ED EFGA | "D7"BAGA Beed |
| "G"BD~D2 "(D7/f#)"BDAD | "Em"GEED EGDG | "C"E2ED EFGA | "D7"~B2A[BF] "G"G2 :|
|: (3def \
| "G"gded "(D7/f#)"B2AB | "Em"GEDE GABd | "Am"egag eage | "D7"dBGA "(/e)"BG"(/f#)"Bd |
| "G"gded "(D7/f#)"B2AB | "Em"GEDE GABd | "Am"egag eage | "D7"dBAB "G"G2 :|
